X: 39520
T: Taureen Derby
R: polka
M: 2/4
K: Edorian
|:BE A/F/E|BE A/F/E|D2 FA|FE FA|
BE A/F/E|BE A/F/E|D>E FA|1 FE EF/A/:|2 FE E2||
|:ef/e/ dB|ef/e/ dB|AF dF|AB/c/ d2|
ef/e/ dB|ef/e/ dB|AF dF|1 FE E2:|2 FE EF/A/||

